public/icons/assets/sick_erdoge.svg

<?xml version="1.0" encoding="UTF-8"?>
<!DOCTYPE svg PUBLIC "-//W3C//DTD SVG 1.1//EN" "http://www.w3.org/Graphics/SVG/1.1/DTD/svg11.dtd">
<svg xmlns="http://www.w3.org/2000/svg" version="1.1" width="532px" height="514px" style="shape-rendering:geometricPrecision; text-rendering:geometricPrecision; image-rendering:optimizeQuality; fill-rule:evenodd; clip-rule:evenodd" xmlns:xlink="http://www.w3.org/1999/xlink">
<g><path style="opacity:1" fill="#fefefe" d="M -0.5,-0.5 C 176.833,-0.5 354.167,-0.5 531.5,-0.5C 531.5,170.833 531.5,342.167 531.5,513.5C 354.167,513.5 176.833,513.5 -0.5,513.5C -0.5,342.167 -0.5,170.833 -0.5,-0.5 Z"/></g>
<g><path style="opacity:1" fill="#252021" d="M 260.5,9.5 C 268.14,8.81749 275.473,9.98416 282.5,13C 316.248,26.8048 349.914,40.8048 383.5,55C 386.964,55.8166 390.298,55.4833 393.5,54C 402.76,45.4046 413.094,38.4046 424.5,33C 436.251,30.2465 445.085,34.0798 451,44.5C 457.149,57.0897 460.815,70.423 462,84.5C 462.602,97.8658 463.602,111.199 465,124.5C 482.31,166.46 499.643,208.46 517,250.5C 519.311,259.059 518.644,267.393 515,275.5C 493.805,326.086 472.805,376.752 452,427.5C 446.027,438.085 437.194,445.252 425.5,449C 375.061,470.22 324.394,490.886 273.5,511C 266.976,512.011 260.643,511.345 254.5,509C 200.688,486.591 147.021,463.925 93.5,441C 91.3333,438.833 89.1667,436.667 87,434.5C 64.7418,382.312 42.7418,329.979 21,277.5C 16.733,269.178 15.733,260.511 18,251.5C 39.5526,197.509 61.8859,143.843 85,90.5C 87.4046,83.9529 89.4046,77.2863 91,70.5C 96.1441,1.50565 121.644,-7.16102 167.5,44.5C 168.611,45.6113 169.945,46.278 171.5,46.5C 201.365,34.3931 231.032,22.0598 260.5,9.5 Z"/></g>
<g><path style="opacity:1" fill="#92cf50" d="M 123.5,78.5 C 123.634,80.2915 123.301,81.9582 122.5,83.5C 119.921,98.0846 120.588,112.418 124.5,126.5C 124.38,138.219 130.047,143.386 141.5,142C 143.739,140.69 145.406,138.857 146.5,136.5C 148.738,137.537 151.071,137.703 153.5,137C 180.192,116.205 210.525,104.205 244.5,101C 296.744,95.9935 342.411,110.66 381.5,145C 384.482,145.498 387.482,145.665 390.5,145.5C 395.497,149.334 400.83,152.667 406.5,155.5C 422.746,178.233 432.079,203.566 434.5,231.5C 422.568,274.636 394.568,292.136 350.5,284C 342.998,280.157 336.498,274.99 331,268.5C 321.385,253.802 310.218,240.302 297.5,228C 272.044,211.924 248.544,214.424 227,235.5C 217.015,250.826 205.515,264.993 192.5,278C 179.56,287.528 165.227,290.195 149.5,286C 133.344,283.008 120.51,274.841 111,261.5C 106.399,253.502 102.899,245.169 100.5,236.5C 103.157,223.028 107.324,210.028 113,197.5C 119.828,184.373 126.995,171.54 134.5,159C 133.315,154.984 130.649,152.484 126.5,151.5C 124.617,151.876 123.117,152.876 122,154.5C 120.833,156.833 119.667,159.167 118.5,161.5C 117.311,162.429 115.978,162.762 114.5,162.5C 100.798,119.801 99.9644,76.8005 112,33.5C 115.627,27.8421 120.793,25.6754 127.5,27C 151.979,46.1972 172.145,69.0305 188,95.5C 189.009,97.0249 189.509,98.6916 189.5,100.5C 186.001,101.1 182.501,101.766 179,102.5C 178.167,102.167 177.333,101.833 176.5,101.5C 169.853,84.7103 158.853,71.5437 143.5,62C 131.719,57.8902 124.052,61.7236 120.5,73.5C 121.092,75.4225 122.092,77.0892 123.5,78.5 Z"/></g>
<g><path style="opacity:1" fill="#d56cca" d="M 263.5,36.5 C 267.605,36.2338 271.605,36.7338 275.5,38C 306.5,51 337.5,64 368.5,77C 369.554,78.3876 369.72,79.8876 369,81.5C 363.167,88.6667 357.333,95.8333 351.5,103C 350.333,103.167 349.167,103.333 348,103.5C 319.659,92.8319 290.325,87.1653 260,86.5C 240.982,87.6488 222.149,89.8154 203.5,93C 198.456,85.745 193.289,78.5784 188,71.5C 187.316,70.2161 187.483,69.0495 188.5,68C 213.589,57.4478 238.589,46.9478 263.5,36.5 Z"/></g>
<g><path style="opacity:1" fill="#91cd4f" d="M 425.5,156.5 C 434.981,144.444 437.981,130.777 434.5,115.5C 440.027,110.74 441.86,104.74 440,97.5C 431.981,79.4542 419.814,75.9542 403.5,87C 393.3,97.195 384.633,108.528 377.5,121C 375.711,121.52 374.044,121.187 372.5,120C 369.14,117.634 366.14,114.967 363.5,112C 379.353,86.4783 399.686,65.1449 424.5,48C 434.448,45.2487 440.281,49.0821 442,59.5C 452.33,100.305 451.663,140.972 440,181.5C 439.333,182.167 438.667,182.833 438,183.5C 433.289,174.744 429.122,165.744 425.5,156.5 Z"/></g>
<g><path style="opacity:1" fill="#3c7b23" d="M 146.5,136.5 C 145.406,138.857 143.739,140.69 141.5,142C 130.047,143.386 124.38,138.219 124.5,126.5C 122.676,112.033 122.009,97.6999 122.5,83.5C 123.301,81.9582 123.634,80.2915 123.5,78.5C 136.407,74.1183 146.907,77.4517 155,88.5C 158.27,94.0399 161.27,99.7065 164,105.5C 164.667,107.5 164.667,109.5 164,111.5C 158.023,115.479 152.69,120.146 148,125.5C 146.763,129.06 146.263,132.727 146.5,136.5 Z"/></g>
<g><path style="opacity:1" fill="#3c7c23" d="M 434.5,115.5 C 437.981,130.777 434.981,144.444 425.5,156.5C 423.365,153.396 420.365,152.063 416.5,152.5C 412.735,152.4 409.401,153.4 406.5,155.5C 400.83,152.667 395.497,149.334 390.5,145.5C 389.329,123.184 398.329,106.351 417.5,95C 420.308,94.0799 422.475,94.9133 424,97.5C 426.038,102.579 428.371,107.579 431,112.5C 431.759,114.063 432.926,115.063 434.5,115.5 Z"/></g>
<g><path style="opacity:1" fill="#766b3a" d="M 122.5,83.5 C 122.009,97.6999 122.676,112.033 124.5,126.5C 120.588,112.418 119.921,98.0846 122.5,83.5 Z"/></g>
<g><path style="opacity:1" fill="#fdfcfb" d="M 191.5,132.5 C 201.984,130.828 210.817,133.828 218,141.5C 223.242,155.181 218.742,164.015 204.5,168C 193.202,170.569 184.035,167.402 177,158.5C 172.845,149.288 175.011,141.788 183.5,136C 186.309,134.907 188.976,133.74 191.5,132.5 Z"/></g>
<g><path style="opacity:1" fill="#fdfcfb" d="M 330.5,132.5 C 340.131,131.031 348.631,133.364 356,139.5C 363.28,151.665 360.447,160.832 347.5,167C 336.297,170.636 326.464,168.469 318,160.5C 312.578,151.709 313.745,143.875 321.5,137C 324.592,135.454 327.592,133.954 330.5,132.5 Z"/></g>
<g><path style="opacity:1" fill="#d36bc8" d="M 92.5,139.5 C 97.5034,152.345 101.837,165.511 105.5,179C 102.099,188.64 98.266,198.14 94,207.5C 78.7077,253.733 75.2077,300.899 83.5,349C 83.1667,350.833 82.8333,352.667 82.5,354.5C 81.2011,353.91 80.3678,352.91 80,351.5C 69.6094,325.719 58.9427,300.052 48,274.5C 46.0592,269.79 44.5592,264.956 43.5,260C 59.1398,219.553 75.4732,179.387 92.5,139.5 Z"/></g>
<g><path style="opacity:1" fill="#d36bc9" d="M 455.5,175.5 C 457.888,176.219 459.388,177.885 460,180.5C 471.198,206.933 481.698,233.6 491.5,260.5C 491.406,262.923 490.906,265.256 490,267.5C 475.724,301.72 461.724,336.053 448,370.5C 449.386,354.206 450.719,337.873 452,321.5C 452.667,303.833 452.667,286.167 452,268.5C 450.279,246.899 447.779,225.399 444.5,204C 444.667,202.5 444.833,201 445,199.5C 449.376,191.866 452.876,183.866 455.5,175.5 Z"/></g>
<g><path style="opacity:1" fill="#272121" d="M 160.5,180.5 C 187.543,177.422 205.043,188.755 213,214.5C 215.497,241.031 203.997,257.864 178.5,265C 151.996,267.507 135.162,256.007 128,230.5C 126.039,205.404 136.872,188.737 160.5,180.5 Z"/></g>
<g><path style="opacity:1" fill="#282121" d="M 357.5,180.5 C 385.269,177.785 402.769,189.785 410,216.5C 411.411,241.844 399.911,258.011 375.5,265C 349.544,267.447 332.711,256.28 325,231.5C 322.309,205.722 333.142,188.722 357.5,180.5 Z"/></g>
<g><path style="opacity:1" fill="#91cc4f" d="M 166.5,191.5 C 187.704,191.874 199.537,202.54 202,223.5C 201.196,224.804 200.029,225.471 198.5,225.5C 184.998,220.071 170.998,218.238 156.5,220C 150.831,221.69 145.164,223.023 139.5,224C 138.281,221.717 138.281,219.384 139.5,217C 144.213,203.783 153.213,195.283 166.5,191.5 Z"/></g>
<g><path style="opacity:1" fill="#90cc4f" d="M 360.5,191.5 C 383.823,190.329 396.323,201.329 398,224.5C 393.57,225.594 389.404,224.76 385.5,222C 379.116,220.256 372.616,219.423 366,219.5C 355.283,219.973 344.783,221.64 334.5,224.5C 336.775,208.205 345.442,197.205 360.5,191.5 Z"/></g>
<g><path style="opacity:1" fill="#fefdfd" d="M 434.5,231.5 C 441.725,293.508 439.225,355.174 427,416.5C 425.5,419.333 423.333,421.5 420.5,423C 369.875,444.428 319.042,465.262 268,485.5C 217.246,465.709 166.746,445.209 116.5,424C 112.072,420.908 109.239,416.741 108,411.5C 94.86,361.961 90.1934,311.627 94,260.5C 95.2568,252.13 97.4235,244.13 100.5,236.5C 102.899,245.169 106.399,253.502 111,261.5C 120.51,274.841 133.344,283.008 149.5,286C 165.227,290.195 179.56,287.528 192.5,278C 205.515,264.993 217.015,250.826 227,235.5C 248.544,214.424 272.044,211.924 297.5,228C 310.218,240.302 321.385,253.802 331,268.5C 336.498,274.99 342.998,280.157 350.5,284C 394.568,292.136 422.568,274.636 434.5,231.5 Z"/></g>
<g><path style="opacity:1" fill="#262123" d="M 258.5,227.5 C 274.818,225.106 288.651,229.772 300,241.5C 312.877,265.486 306.711,282.652 281.5,293C 279.398,294.733 279.065,296.733 280.5,299C 294.465,305.408 308.131,304.742 321.5,297C 326.386,293.271 331.386,289.771 336.5,286.5C 343.775,288.403 345.275,292.403 341,298.5C 333.226,305.64 324.392,311.14 314.5,315C 313.426,315.739 312.759,316.739 312.5,318C 320.52,336.471 322.687,355.637 319,375.5C 311.2,402.996 293.033,414.829 264.5,411C 237.903,406.069 222.403,390.236 218,363.5C 215.893,347.706 218.06,332.54 224.5,318C 224.167,317.167 223.833,316.333 223.5,315.5C 212.867,311.694 203.701,305.694 196,297.5C 191.914,289.529 194.414,286.029 203.5,287C 218.299,303.627 235.966,307.627 256.5,299C 257.935,296.733 257.602,294.733 255.5,293C 230.685,282.557 224.519,265.39 237,241.5C 242.849,234.668 250.016,230.001 258.5,227.5 Z"/></g>
<g><path style="opacity:1" fill="#f7f6f6" d="M 348.5,232.5 C 350.144,232.286 351.644,232.62 353,233.5C 354.893,240.142 358.393,245.642 363.5,250C 367.896,251.136 371.562,249.969 374.5,246.5C 377.695,243.106 379.861,239.106 381,234.5C 381.804,233.196 382.971,232.529 384.5,232.5C 394.346,236.755 395.012,242.255 386.5,249C 371.408,258.583 357.241,257.416 344,245.5C 341.924,242.783 341.257,239.783 342,236.5C 344.314,235.267 346.481,233.933 348.5,232.5 Z"/></g>
<g><path style="opacity:1" fill="#f7f7f7" d="M 149.5,233.5 C 151.989,233.298 154.323,233.798 156.5,235C 158.269,239.371 160.436,243.538 163,247.5C 169.37,251.622 175.036,250.622 180,244.5C 181.721,240.89 183.554,237.39 185.5,234C 195.91,233.59 198.243,237.757 192.5,246.5C 176.036,259.442 160.536,258.442 146,243.5C 143.487,238.886 144.654,235.553 149.5,233.5 Z"/></g>
<g><path style="opacity:1" fill="#10729b" d="M 261.5,239.5 C 271.009,238.429 279.676,240.595 287.5,246C 294.046,252.221 295.213,259.387 291,267.5C 287.4,271.548 282.9,273.215 277.5,272.5C 277.34,270.801 277.506,269.134 278,267.5C 281.208,263.632 284.375,259.799 287.5,256C 286.335,251.251 283.335,249.251 278.5,250C 271.467,255.924 264.467,255.924 257.5,250C 252.333,248.5 250.5,250.333 252,255.5C 254.003,260.846 257.003,265.513 261,269.5C 261.684,270.784 261.517,271.951 260.5,273C 251.873,275.388 246.373,272.222 244,263.5C 242.701,253.598 246.534,246.432 255.5,242C 257.723,241.434 259.723,240.6 261.5,239.5 Z"/></g>
<g><path style="opacity:1" fill="#82c8e9" d="M 259.5,310.5 C 260.822,310.33 261.989,310.663 263,311.5C 263.689,331.166 264.356,350.833 265,370.5C 265.374,371.416 265.874,372.25 266.5,373C 271.16,374.296 274.993,373.13 278,369.5C 278.443,352.979 277.943,336.479 276.5,320C 276.833,317.5 277.167,315 277.5,312.5C 285.482,313.061 292.649,316.061 299,321.5C 307.728,337.487 310.395,354.487 307,372.5C 301.696,389.659 290.029,397.992 272,397.5C 253.533,397.936 240.866,389.603 234,372.5C 230.161,356.949 230.827,341.616 236,326.5C 238.201,319.473 243.035,315.973 250.5,316C 253.898,314.643 256.898,312.81 259.5,310.5 Z"/></g>
</svg>

<svg xmlns="http://www.w3.org/2000/svg" width="532" height="514" style="shape-rendering:geometricPrecision;text-rendering:geometricPrecision;image-rendering:optimizeQuality;fill-rule:evenodd;clip-rule:evenodd"><path style="opacity:1" fill="#fefefe" d="M-.5-.5h532v514H-.5V-.5Z"/><path style="opacity:1" fill="#252021" d="M260.5 9.5c7.64-.68 14.97.48 22 3.5 33.75 13.8 67.41 27.8 101 42 3.46.82 6.8.48 10-1 9.26-8.6 19.6-15.6 31-21 11.75-2.75 20.58 1.08 26.5 11.5a111.7 111.7 0 0 1 11 40c.6 13.37 1.6 26.7 3 40l52 126a36.23 36.23 0 0 1-2 25c-21.2 50.59-42.2 101.25-63 152-5.97 10.58-14.8 17.75-26.5 21.5a7511.26 7511.26 0 0 1-152 62 36.66 36.66 0 0 1-19-2 17299.29 17299.29 0 0 1-161-68l-6.5-6.5a16420 16420 0 0 1-66-157 35.99 35.99 0 0 1-3-26c21.55-54 43.89-107.66 67-161a172.4 172.4 0 0 0 6-20c5.14-69 30.64-77.66 76.5-26a6.9 6.9 0 0 0 4 2 5427.13 5427.13 0 0 0 89-37Z"/><path style="opacity:1" fill="#92cf50" d="M123.5 78.5c.13 1.8-.2 3.46-1 5a96.14 96.14 0 0 0 2 43c-.12 11.72 5.55 16.89 17 15.5a12.16 12.16 0 0 0 5-5.5 9.71 9.71 0 0 0 7 .5c26.7-20.8 57.03-32.8 91-36 52.24-5 97.91 9.66 137 44 2.98.5 5.98.66 9 .5 5 3.83 10.33 7.17 16 10a150.81 150.81 0 0 1 28 76c-11.93 43.14-39.93 60.64-84 52.5-7.5-3.84-14-9.01-19.5-15.5a235.75 235.75 0 0 0-33.5-40.5c-25.46-16.08-48.96-13.58-70.5 7.5a262.6 262.6 0 0 1-34.5 42.5c-12.94 9.53-27.27 12.2-43 8-16.16-3-28.99-11.16-38.5-24.5-4.6-8-8.1-16.33-10.5-25a177.35 177.35 0 0 1 12.5-39 739 739 0 0 1 21.5-38.5c-1.19-4.02-3.85-6.52-8-7.5a6.94 6.94 0 0 0-4.5 3l-3.5 7a4.85 4.85 0 0 1-4 1c-13.7-42.7-14.54-85.7-2.5-129 3.63-5.66 8.8-7.82 15.5-6.5A248.98 248.98 0 0 1 188 95.5a8.8 8.8 0 0 1 1.5 5c-3.5.6-7 1.27-10.5 2l-2.5-1a80.09 80.09 0 0 0-33-39.5c-11.78-4.11-19.45-.28-23 11.5.6 1.92 1.6 3.59 3 5Z"/><path style="opacity:1" fill="#d56cca" d="M263.5 36.5c4.1-.27 8.1.23 12 1.5l93 39a4.16 4.16 0 0 1 .5 4.5L351.5 103l-3.5.5a264.5 264.5 0 0 0-88-17 522.6 522.6 0 0 0-56.5 6.5A775.4 775.4 0 0 0 188 71.5c-.68-1.28-.52-2.45.5-3.5 25.09-10.55 50.09-21.05 75-31.5Z"/><path style="opacity:1" fill="#91cd4f" d="M425.5 156.5c9.48-12.06 12.48-25.72 9-41 5.53-4.76 7.36-10.76 5.5-18-8.02-18.05-20.19-21.55-36.5-10.5a160.6 160.6 0 0 0-26 34 5.36 5.36 0 0 1-5-1 52.28 52.28 0 0 1-9-8 214.73 214.73 0 0 1 61-64c9.95-2.75 15.78 1.08 17.5 11.5 10.33 40.8 9.66 81.47-2 122l-2 2a247.52 247.52 0 0 1-12.5-27Z"/><path style="opacity:1" fill="#3c7b23" d="M146.5 136.5a12.16 12.16 0 0 1-5 5.5c-11.45 1.39-17.12-3.78-17-15.5a268.96 268.96 0 0 1-2-43 9.15 9.15 0 0 0 1-5c12.9-4.38 23.4-1.05 31.5 10 3.27 5.54 6.27 11.2 9 17 .67 2 .67 4 0 6a80.4 80.4 0 0 0-16 14 27.87 27.87 0 0 0-1.5 11Z"/><path style="opacity:1" fill="#3c7c23" d="M434.5 115.5c3.48 15.28.48 28.94-9 41-2.13-3.1-5.13-4.44-9-4-3.76-.1-7.1.9-10 3a98.66 98.66 0 0 1-16-10c-1.17-22.32 7.83-39.15 27-50.5 2.8-.92 4.98-.09 6.5 2.5a151.73 151.73 0 0 0 7 15 5.37 5.37 0 0 0 3.5 3Z"/><path style="opacity:1" fill="#766b3a" d="M122.5 83.5c-.5 14.2.18 28.53 2 43a96.14 96.14 0 0 1-2-43Z"/><path style="opacity:1" fill="#fdfcfb" d="M191.5 132.5c10.48-1.67 19.32 1.33 26.5 9 5.24 13.68.74 22.51-13.5 26.5-11.3 2.57-20.47-.6-27.5-9.5-4.16-9.21-1.99-16.71 6.5-22.5 2.8-1.1 5.48-2.26 8-3.5ZM330.5 132.5c9.63-1.47 18.13.86 25.5 7 7.28 12.16 4.45 21.33-8.5 27.5-11.2 3.64-21.04 1.47-29.5-6.5-5.42-8.8-4.25-16.63 3.5-23.5l9-4.5Z"/><path style="opacity:1" fill="#d36bc8" d="M92.5 139.5c5 12.84 9.34 26.01 13 39.5A347.31 347.31 0 0 1 94 207.5C78.7 253.73 75.2 300.9 83.5 349l-1 5.5a4.33 4.33 0 0 1-2.5-3 3877.7 3877.7 0 0 0-32-77 84.15 84.15 0 0 1-4.5-14.5 3771.17 3771.17 0 0 1 49-120.5Z"/><path style="opacity:1" fill="#d36bc9" d="M455.5 175.5c2.39.72 3.89 2.38 4.5 5 11.2 26.43 21.7 53.1 31.5 80a20.7 20.7 0 0 1-1.5 7 6910.28 6910.28 0 0 0-42 103c1.39-16.3 2.72-32.63 4-49 .67-17.67.67-35.33 0-53a895 895 0 0 0-7.5-64.5l.5-4.5a120.85 120.85 0 0 0 10.5-24Z"/><path style="opacity:1" fill="#272121" d="M160.5 180.5c27.04-3.08 44.54 8.25 52.5 34 2.5 26.53-9 43.36-34.5 50.5-26.5 2.5-43.34-9-50.5-34.5-1.96-25.1 8.87-41.76 32.5-50Z"/><path style="opacity:1" fill="#282121" d="M357.5 180.5c27.77-2.72 45.27 9.28 52.5 36 1.41 25.34-10.09 41.51-34.5 48.5-25.96 2.45-42.79-8.72-50.5-33.5-2.7-25.78 8.14-42.78 32.5-51Z"/><path style="opacity:1" fill="#91cc4f" d="M166.5 191.5c21.2.37 33.04 11.04 35.5 32a3.97 3.97 0 0 1-3.5 2 83.75 83.75 0 0 0-42-5.5 146.85 146.85 0 0 1-17 4 7.16 7.16 0 0 1 0-7c4.71-13.22 13.71-21.72 27-25.5Z"/><path style="opacity:1" fill="#90cc4f" d="M360.5 191.5c23.32-1.17 35.82 9.83 37.5 33-4.43 1.1-8.6.26-12.5-2.5a70.53 70.53 0 0 0-19.5-2.5 140.25 140.25 0 0 0-31.5 5c2.27-16.3 10.94-27.3 26-33Z"/><path style="opacity:1" fill="#fefdfd" d="M434.5 231.5a590.8 590.8 0 0 1-7.5 185 15.3 15.3 0 0 1-6.5 6.5A7190.37 7190.37 0 0 1 268 485.5 5921.76 5921.76 0 0 1 116.5 424a20.53 20.53 0 0 1-8.5-12.5 453.56 453.56 0 0 1-14-151 106.05 106.05 0 0 1 6.5-24c2.4 8.67 5.9 17 10.5 25 9.51 13.34 22.34 21.5 38.5 24.5 15.73 4.2 30.06 1.53 43-8a262.6 262.6 0 0 0 34.5-42.5c21.54-21.08 45.04-23.58 70.5-7.5a235.75 235.75 0 0 1 33.5 40.5c5.5 6.49 12 11.66 19.5 15.5 44.07 8.14 72.07-9.36 84-52.5Z"/><path style="opacity:1" fill="#262123" d="M258.5 227.5c16.32-2.4 30.15 2.27 41.5 14 12.88 23.99 6.71 41.15-18.5 51.5-2.1 1.73-2.44 3.73-1 6 13.96 6.4 27.63 5.74 41-2 4.89-3.73 9.89-7.23 15-10.5 7.27 1.9 8.77 5.9 4.5 12a83.94 83.94 0 0 1-26.5 16.5 4.66 4.66 0 0 0-2 3 96.89 96.89 0 0 1 6.5 57.5c-7.8 27.5-25.97 39.33-54.5 35.5-26.6-4.93-42.1-20.76-46.5-47.5a83.14 83.14 0 0 1 6.5-45.5l-1-2.5a69.22 69.22 0 0 1-27.5-18c-4.09-7.97-1.59-11.47 7.5-10.5 14.8 16.63 32.47 20.63 53 12 1.44-2.27 1.1-4.27-1-6-24.81-10.44-30.98-27.61-18.5-51.5a44.25 44.25 0 0 1 21.5-14Z"/><path style="opacity:1" fill="#f7f6f6" d="M348.5 232.5a6.48 6.48 0 0 1 4.5 1 33.12 33.12 0 0 0 10.5 16.5c4.4 1.14 8.06-.03 11-3.5 3.2-3.4 5.36-7.4 6.5-12a3.97 3.97 0 0 1 3.5-2c9.85 4.25 10.51 9.75 2 16.5-15.1 9.58-29.26 8.42-42.5-3.5a10.4 10.4 0 0 1-2-9 59.8 59.8 0 0 0 6.5-4Z"/><path style="opacity:1" fill="#f7f7f7" d="M149.5 233.5c2.49-.2 4.82.3 7 1.5a74.18 74.18 0 0 0 6.5 12.5c6.37 4.12 12.04 3.12 17-3 1.72-3.61 3.55-7.11 5.5-10.5 10.41-.41 12.74 3.76 7 12.5-16.46 12.94-31.96 11.94-46.5-3-2.51-4.61-1.35-7.95 3.5-10Z"/><path style="opacity:1" fill="#10729b" d="M261.5 239.5a37.03 37.03 0 0 1 26 6.5c6.55 6.22 7.71 13.39 3.5 21.5-3.6 4.05-8.1 5.71-13.5 5-.16-1.7 0-3.37.5-5 3.2-3.87 6.38-7.7 9.5-11.5-1.17-4.75-4.17-6.75-9-6-7.03 5.92-14.03 5.92-21 0-5.17-1.5-7 .33-5.5 5.5 2 5.35 5 10.01 9 14 .68 1.28.52 2.45-.5 3.5-8.63 2.39-14.13-.78-16.5-9.5-1.3-9.9 2.53-17.07 11.5-21.5a21.3 21.3 0 0 0 6-2.5Z"/><path style="opacity:1" fill="#82c8e9" d="M259.5 310.5a4.39 4.39 0 0 1 3.5 1c.69 19.67 1.36 39.33 2 59 .37.92.87 1.75 1.5 2.5 4.66 1.3 8.5.13 11.5-3.5.44-16.52-.06-33.02-1.5-49.5l1-7.5c7.98.56 15.15 3.56 21.5 9 8.73 15.99 11.4 32.99 8 51-5.3 17.16-16.97 25.5-35 25-18.47.44-31.13-7.9-38-25a80.02 80.02 0 0 1 2-46c2.2-7.03 7.03-10.53 14.5-10.5 3.4-1.36 6.4-3.19 9-5.5Z"/></svg>
